X: 1
T: Chosen-kalle masel tov
B: Kammen
S: printed MS of unknown origin
Z: 2008 John Chambers <jc:trillian.mit.edu>
M: 2/4
L: 1/8
K: Gm
DGB \
| "Gm"d2 d2 | ^c2 d2 | BA G2- | GD GB |
w:|Cho-se Kal-le ma-sel tov____
| "Gm"d2 d2 | ^c2 d2 |"Dm"=ef d2- | "D7"dd =e^f |
